public/icons/hardware.svg

<svg width="16" height="16" version="1.2" overflow="inherit" xmlns="http://www.w3.org/2000/svg">
  <path
    d="M4.0165162 15.835299c-.1088007.190722-.4185626.220802-.6918443.064001l-1.7107308-.973766c-.2720017-.155201-.4048025-.435843-.2956818-.626244L8.5941447 2.7654572c1.046407-1.6915307-2.6112161-1.5424097-3.5091418-1.0444866C5.7640472.503363 7.9282207.10144048 9.3317497-1.6e-7l.408322.02656017c.7932853.39520248 1.9308933.98816619 2.6806573 1.48544929.550724.8649654 1.131527 1.3203283 1.953933 1.3180883 1.073286.8224051-.603204 3.0659392-1.657931 2.0268927.00576-.5132832-1.483529-1.8412916-2.526736-.7472047Z" />
</svg>

<?xml version="1.0" encoding="UTF-8" standalone="no"?>
<!-- Uploaded to: SVG Repo, www.svgrepo.com, Generator: SVG Repo Mixer Tools -->

<svg fill="#000000" width="16" height="16" viewBox="0 0 16 16" version="1.2" overflow="inherit" id="svg4" sodipodi:docname="hardware.svg" inkscape:version="1.2.2 (b0a8486541, 2022-12-01)" xmlns:inkscape="http://www.inkscape.org/namespaces/inkscape" xmlns:sodipodi="http://sodipodi.sourceforge.net/DTD/sodipodi-0.dtd" xmlns="http://www.w3.org/2000/svg" xmlns:svg="http://www.w3.org/2000/svg">
  <defs id="defs8" />
  <sodipodi:namedview id="namedview6" pagecolor="#ffffff" bordercolor="#666666" borderopacity="1.0" inkscape:showpageshadow="2" inkscape:pageopacity="0.0" inkscape:pagecheckerboard="0" inkscape:deskcolor="#d1d1d1" showgrid="false" inkscape:zoom="9.44" inkscape:cx="37.552966" inkscape:cy="22.298729" inkscape:window-width="1863" inkscape:window-height="1056" inkscape:window-x="0" inkscape:window-y="0" inkscape:window-maximized="1" inkscape:current-layer="svg4" />
  <path d="M 4.0165162,15.835299 C 3.9077155,16.026021 3.5979536,16.056101 3.3246719,15.8993 L 1.6139411,14.925534 C 1.3419394,14.770333 1.2091386,14.489691 1.3182593,14.29929 L 8.5941447,2.7654572 C 9.6405517,1.0739265 5.9829286,1.2230475 5.0850029,1.7209706 C 5.7640472,0.503363 7.9282207,0.10144048 9.3317497,-1.5866612e-7 L 9.7400717,0.02656001 C 10.533357,0.42176249 11.670965,1.0147262 12.420729,1.5120093 C 12.971453,2.3769747 13.552256,2.8323376 14.374662,2.8300976 C 15.447948,3.6525027 13.771458,5.8960368 12.716731,4.8569903 C 12.722491,4.3437071 11.233202,3.0156987 10.189995,4.1097856 Z" id="path2" style="stroke-width:1" />
</svg>
